!!!SOCIAL_FUNCTION:	parade songs
!!!PDT:	1922
!!!OTL: No_87_Parade_Song_(e).krn
!!!REG: Southwest
!!!LANG: Non-Tone
!!!LING_GROUP: Uto-Aztecan
**kern	**kern
*staff2	*staff1
=1-	=1-
*clefF4	*clefF4
*k[]	*k[]
*M3/4	*M3/4
2.r	2G\
.	8E/L
.	8C/J
=2||	=2||
*M2/4	*M2/4
2r	8.d\L
.	16c\Jk
.	8d\L
.	8G\J
=3	=3
2r	8.d\L
.	16c\Jk
.	8d\L
.	8G\J
=4	=4
2r	16d\LL
.	16A\
.	16.d\
.	32A\JJk
.	8G\L
.	8G\J
=5||	=5||
*M3/4	*M3/4
2.r	2G\
.	8E/L
.	8C/J
=6||	=6||
*M2/4	*M2/4
2r	12A\L
.	12G\
.	12G\J
.	12A\L
.	12G\
.	12G\J
=7	=7
2r	8.A\L
.	16d\Jk
.	12A\L
.	12G\
.	12G\J
=8||	=8||
*M3/4	*M3/4
2.r	2G\
.	8E/L
.	8C/J
=9	=9
2.r	2G\
.	8D/L
.	8C/J
=10||	=10||
*M2/4	*M2/4
2r	8.D\L
.	16G\Jk
.	12D\L
.	12C\
.	12D\J
=11||	=11||
*M3/4	*M3/4
2.r	2C/
.	8C/L
.	8GG/J
=12||	=12||
*M2/4	*M2/4
2r	4D\
.	4GG/
=13	=13
2r	12D/L
.	12C/
.	12C/J
.	12C/L
.	12GG/
.	12GG/J
=14	=14
2r	2GG/
==	==
*-	*-
